src/components/Icon/assets/link.svg

<svg width="24" height="24" viewBox="0 0 24 24" fill="none" xmlns="http://www.w3.org/2000/svg">
<path fill-rule="evenodd" clip-rule="evenodd" d="M14.6273 4.9814L12.2682 7.34051L10.854 5.9263L13.2131 3.56719C15.3026 1.47766 18.6908 1.47766 20.7803 3.56719C22.8698 5.65671 22.8698 9.04488 20.7803 11.1344L17.4763 14.4384C15.3868 16.5279 11.9986 16.5279 9.9091 14.4384L9.202 13.7313L10.6162 12.3171L11.3233 13.0242C12.6318 14.3327 14.7536 14.3327 16.0621 13.0242L19.3661 9.72019C20.6746 8.41171 20.6746 6.28988 19.3661 4.9814C18.0576 3.67293 15.9358 3.67293 14.6273 4.9814ZM9.7202 19.3664L12.0793 17.0073L13.4935 18.4215L11.1344 20.7806C9.04489 22.8701 5.65673 22.8701 3.5672 20.7806C1.47768 18.6911 1.47768 15.3029 3.5672 13.2134L6.8712 9.90939C8.96073 7.81987 12.3489 7.81987 14.4384 9.90939L15.1455 10.6165L13.7313 12.0307L13.0242 11.3236C11.7157 10.0151 9.59389 10.0151 8.28542 11.3236L4.98142 14.6276C3.67294 15.9361 3.67294 18.0579 4.98142 19.3664C6.28989 20.6749 8.41173 20.6749 9.7202 19.3664Z" fill="#65676A"/>
</svg>

<svg xmlns="http://www.w3.org/2000/svg" width="24" height="24" viewBox="0 0 24 24">
    <path fill="#65676A" fill-rule="evenodd" d="M6.871 9.91c2.09-2.09 5.478-2.09 7.567 0l.708.707-1.415 1.414-.707-.707c-1.308-1.309-3.43-1.309-4.739 0l-3.304 3.304c-1.308 1.308-1.308 3.43 0 4.738 1.309 1.309 3.43 1.309 4.74 0l2.358-2.359 1.415 1.415-2.36 2.359c-2.09 2.09-5.477 2.09-7.567 0s-2.09-5.478 0-7.568zm6.342-6.343c2.09-2.09 5.478-2.09 7.567 0 2.09 2.09 2.09 5.478 0 7.567l-3.304 3.304c-2.09 2.09-5.477 2.09-7.567 0l-.707-.707 1.414-1.414.707.707c1.309 1.309 3.43 1.309 4.74 0l3.303-3.304c1.309-1.308 1.309-3.43 0-4.739-1.308-1.308-3.43-1.308-4.739 0l-2.359 2.36-1.414-1.415z"/>
</svg>
